X:1
T:Boys of Sligo, The
R:reel
D:Dervish: The Boys of Sligo
Z:id:hn-reel-230
M:4/4
L:1/8
K:D
dABA dABA|GAFA EADA|dABA dABA|FAEA D2fe|
dABA FAdA|~G3F EADA|d2BA dABA|FAEA D4|]
df~f2 dfed|cdef gece|df~f2 dfed|1 cABc d3A:|2 cABc defg|]
a2ag ~f3d|~e3d efge|~a3g f2fd|cABc defg|
aA~A2 aAaA|gA~A2 gAgA|f2af gfed|1 cABc defg:|2 cABc d2dA|]
</abc>
<abc>
